images/icons/parking.svg

<svg width="52" height="52" viewBox="0 0 52 52" fill="none" xmlns="http://www.w3.org/2000/svg">
<g clip-path="url(#clip0)">
<path d="M26 0C20.8576 0 15.8308 1.52487 11.5551 4.38179C7.27945 7.23871 3.94696 11.2994 1.97908 16.0502C0.0112044 20.8011 -0.503682 26.0288 0.499533 31.0723C1.50275 36.1159 3.97901 40.7486 7.61517 44.3848C11.2513 48.0209 15.8841 50.4972 20.9276 51.5004C25.9711 52.5036 31.1988 51.9887 35.9497 50.0209C40.7006 48.053 44.7612 44.7205 47.6182 40.4448C50.4751 36.1692 52 31.1423 52 26C51.9922 19.1067 49.2504 12.498 44.3762 7.62377C39.5019 2.74951 32.8932 0.00774185 26 0V0ZM26 47.6667C21.7147 47.6667 17.5257 46.3959 13.9626 44.0152C10.3995 41.6344 7.62246 38.2505 5.98256 34.2915C4.34266 30.3324 3.91359 25.976 4.7496 21.773C5.58562 17.5701 7.64917 13.7095 10.6793 10.6794C13.7094 7.64922 17.5701 5.58567 21.773 4.74965C25.9759 3.91364 30.3324 4.34271 34.2914 5.98261C38.2505 7.62251 41.6344 10.3996 44.0151 13.9626C46.3959 17.5257 47.6666 21.7147 47.6666 26C47.6601 31.7444 45.3753 37.2516 41.3134 41.3134C37.2515 45.3753 31.7443 47.6601 26 47.6667Z" fill="black"/>
<path d="M29.25 15.1667H21.6667C21.092 15.1667 20.5409 15.395 20.1346 15.8014C19.7283 16.2077 19.5 16.7588 19.5 17.3334V39.0001H23.8333V30.3334H29.25C31.2612 30.3334 33.1901 29.5345 34.6122 28.1123C36.0344 26.6902 36.8333 24.7613 36.8333 22.7501C36.8333 20.7389 36.0344 18.81 34.6122 17.3879C33.1901 15.9657 31.2612 15.1667 29.25 15.1667ZM29.25 26.0001H23.8333V19.5001H29.25C30.1119 19.5001 30.9386 19.8425 31.5481 20.452C32.1576 21.0615 32.5 21.8881 32.5 22.7501C32.5 23.612 32.1576 24.4387 31.5481 25.0482C30.9386 25.6577 30.1119 26.0001 29.25 26.0001Z" fill="black"/>
</g>
<defs>
<clipPath id="clip0">
<rect width="52" height="52" fill="white"/>
</clipPath>
</defs>
</svg>

<svg width="52" height="52" fill="none" xmlns="http://www.w3.org/2000/svg"><g clip-path="url(#a)" fill="#000"><path d="M26 0a26 26 0 1 0 26 26A26.03 26.03 0 0 0 26 0zm0 47.667A21.667 21.667 0 1 1 47.667 26 21.69 21.69 0 0 1 26 47.667z"/><path d="M29.25 15.167h-7.583a2.166 2.166 0 0 0-2.167 2.166V39h4.333v-8.667h5.417a7.583 7.583 0 1 0 0-15.166zm0 10.833h-5.417v-6.5h5.417a3.25 3.25 0 0 1 0 6.5z"/></g><defs><clipPath id="a"><path fill="#fff" d="M0 0h52v52H0z"/></clipPath></defs></svg>
